packages/icons/src/components/Logo/assets/light/rust.svg

<svg width="20" height="20" viewBox="0 0 20 20" fill="none" xmlns="http://www.w3.org/2000/svg">
<g>
<path d="M19.8634 9.75483L19.0237 9.23508C19.0167 9.15329 19.0086 9.0717 18.9998 8.99048L19.7214 8.31747C19.7948 8.24906 19.8276 8.14779 19.8078 8.04976C19.7885 7.95135 19.7195 7.87033 19.6257 7.83536L18.7033 7.49045C18.6802 7.41057 18.6559 7.33127 18.631 7.25235L19.2064 6.45322C19.2651 6.37201 19.2771 6.26634 19.2389 6.17366C19.2007 6.08137 19.1172 6.01525 19.0184 5.99901L18.0457 5.84079C18.0079 5.76703 17.9685 5.69441 17.9288 5.62237L18.3375 4.72522C18.3794 4.63388 18.3708 4.52763 18.315 4.4447C18.2594 4.36139 18.1652 4.31266 18.0647 4.31648L17.0775 4.35088C17.0265 4.28705 16.9745 4.2238 16.9216 4.1617L17.1484 3.20015C17.1713 3.1025 17.1425 3.00027 17.0714 2.92937C17.0009 2.85867 16.8985 2.82944 16.8008 2.85237L15.8394 3.079C15.7772 3.02626 15.7139 2.97409 15.6499 2.92307L15.6845 1.93591C15.6883 1.83597 15.6396 1.741 15.5563 1.68558C15.4728 1.62979 15.3671 1.62138 15.2759 1.66284L14.379 2.07177C14.3065 2.03203 14.2339 1.99266 14.1606 1.95464L14.0019 0.981808C13.9859 0.883207 13.9198 0.799511 13.8273 0.761293C13.735 0.722885 13.6291 0.735305 13.5479 0.793778L12.7482 1.36914C12.6695 1.34411 12.5904 1.32003 12.5105 1.2971L12.1656 0.374532C12.1306 0.280517 12.0496 0.211534 11.9512 0.192043C11.853 0.172743 11.7519 0.205419 11.6837 0.278415L11.0107 1.00054C10.9295 0.991554 10.8477 0.983337 10.7661 0.976649L10.2463 0.136819C10.1938 0.0517848 10.1007 0 10.0006 0C9.90044 0 9.80738 0.0517848 9.75503 0.136819L9.23527 0.976649C9.15348 0.983337 9.0717 0.991554 8.99048 1.00054L8.31728 0.278415C8.24906 0.205419 8.14779 0.172743 8.04976 0.192043C7.95135 0.211725 7.87033 0.280517 7.83536 0.374532L7.49045 1.2971C7.41057 1.32003 7.33146 1.3443 7.25254 1.36914L6.45303 0.793778C6.37182 0.735114 6.26596 0.722694 6.17347 0.761293C6.08117 0.799511 6.01487 0.883207 5.99882 0.981808L5.84021 1.95464C5.76684 1.99266 5.69422 2.03184 5.6218 2.07177L4.72483 1.66284C4.63368 1.62119 4.52744 1.62979 4.44451 1.68558C4.36119 1.741 4.31247 1.83597 4.31629 1.93591L4.35068 2.92307C4.28686 2.97409 4.22361 3.02626 4.16113 3.079L3.19976 2.85237C3.10212 2.82963 2.99969 2.85867 2.92899 2.92937C2.85791 3.00027 2.82905 3.1025 2.85198 3.20015L3.07842 4.1617C3.02587 4.22399 2.9739 4.28705 2.92288 4.35088L1.93572 4.31648C1.83616 4.31361 1.741 4.36139 1.68539 4.4447C1.6296 4.52763 1.62119 4.63388 1.66265 4.72522L2.07158 5.62237C2.03184 5.69441 1.99247 5.76703 1.95444 5.84079L0.981808 5.99901C0.883016 6.01506 0.799702 6.08117 0.761293 6.17366C0.723076 6.26634 0.735496 6.37201 0.793778 6.45322L1.36914 7.25235C1.34411 7.33127 1.31984 7.41057 1.29691 7.49045L0.374341 7.83536C0.280708 7.87033 0.211725 7.95135 0.192234 8.04976C0.172743 8.14798 0.205419 8.24906 0.278606 8.31747L1.00034 8.99048C0.991363 9.0717 0.983337 9.15348 0.976458 9.23508L0.136819 9.75483C0.0517848 9.80738 0 9.90025 0 10.0006C0 10.1009 0.0517848 10.1938 0.136819 10.2461L0.976458 10.7659C0.983337 10.8477 0.991363 10.9293 1.00034 11.0105L0.278606 11.6837C0.205419 11.7519 0.172743 11.8532 0.192234 11.9512C0.211725 12.0496 0.280708 12.1304 0.374341 12.1656L1.29691 12.5105C1.31984 12.5904 1.34411 12.6697 1.36914 12.7486L0.793778 13.5479C0.735305 13.6293 0.722885 13.735 0.761293 13.8273C0.799702 13.92 0.883207 13.9861 0.982 14.0019L1.95444 14.1602C1.99247 14.2339 2.03145 14.3065 2.07158 14.379L1.66265 15.2757C1.621 15.3669 1.6296 15.4729 1.68539 15.5563C1.74119 15.6398 1.83616 15.6885 1.93572 15.6845L2.92249 15.6499C2.9739 15.7141 3.02568 15.777 3.07842 15.8394L2.85198 16.8012C2.82905 16.8986 2.85791 17.0005 2.92899 17.0714C2.9995 17.1427 3.10212 17.1711 3.19976 17.1482L4.16113 16.9218C4.22361 16.9749 4.28686 17.0265 4.35068 17.0773L4.31629 18.0647C4.31247 18.1646 4.36119 18.2594 4.44451 18.3152C4.52744 18.3708 4.63368 18.3792 4.72483 18.3375L5.6218 17.9288C5.69403 17.9689 5.76664 18.0079 5.84021 18.0459L5.99882 19.0182C6.01487 19.1172 6.08098 19.2009 6.17347 19.2389C6.26576 19.2773 6.37182 19.2649 6.45303 19.2066L7.25216 18.6309C7.33108 18.6559 7.41038 18.6803 7.49025 18.7033L7.83517 19.6255C7.87014 19.7191 7.95116 19.7885 8.04957 19.8076C8.14779 19.8274 8.24887 19.7946 8.31709 19.7212L8.99029 18.9995C9.0715 19.0088 9.15329 19.0167 9.23508 19.0239L9.75483 19.8636C9.80719 19.9482 9.90025 20.0004 10.0004 20.0004C10.1005 20.0004 10.1936 19.9484 10.2461 19.8636L10.7659 19.0239C10.8477 19.0167 10.9293 19.0088 11.0105 18.9995L11.6835 19.7212C11.7517 19.7946 11.853 19.8274 11.951 19.8076C12.0494 19.7883 12.1304 19.7191 12.1654 19.6255L12.5103 18.7033C12.5902 18.6803 12.6695 18.6559 12.7484 18.6309L13.5477 19.2066C13.6289 19.2649 13.7348 19.2773 13.8271 19.2389C13.9196 19.2009 13.9857 19.117 14.0018 19.0182L14.1604 18.0459C14.2337 18.0079 14.3064 17.9684 14.3788 17.9288L15.2757 18.3375C15.3669 18.3792 15.4729 18.3708 15.5561 18.3152C15.6394 18.2594 15.6879 18.1648 15.6843 18.0647L15.6499 17.0773C15.7137 17.0263 15.777 16.9749 15.8393 16.9218L16.8006 17.1482C16.8983 17.1711 17.0007 17.1427 17.0712 17.0714C17.1423 17.0005 17.1711 16.8986 17.1482 16.8012L16.9218 15.8394C16.9745 15.777 17.0265 15.7141 17.0773 15.6499L18.0645 15.6845C18.164 15.6885 18.2592 15.6398 18.3148 15.5563C18.3706 15.4729 18.3792 15.3669 18.3373 15.2757L17.9286 14.379C17.9685 14.3065 18.0077 14.2339 18.0456 14.1602L19.0182 14.0019C19.1172 13.9861 19.2005 13.92 19.2387 13.8273C19.2769 13.735 19.2649 13.6293 19.2062 13.5479L18.6309 12.7486C18.6557 12.6697 18.68 12.5904 18.7031 12.5105L19.6255 12.1656C19.7193 12.1304 19.7885 12.0496 19.8076 11.9512C19.8274 11.853 19.7946 11.7519 19.7212 11.6837L18.9997 11.0105C19.0084 10.9293 19.0165 10.8475 19.0235 10.7659L19.8632 10.2461C19.9482 10.1938 20 10.1007 20 10.0006C20 9.90044 19.9484 9.80738 19.8634 9.75483ZM14.2437 16.7202C13.923 16.651 13.7191 16.3349 13.7879 16.0133C13.8565 15.6921 14.1724 15.4877 14.4929 15.5568C14.8135 15.6254 15.0178 15.9421 14.949 16.2631C14.8802 16.5841 14.5641 16.7888 14.2437 16.7202ZM13.9584 14.7906C13.6658 14.7279 13.378 14.914 13.3154 15.2071L13.0173 16.5983C12.0974 17.0158 11.0758 17.2478 10 17.2478C8.89953 17.2478 7.85581 17.0043 6.91948 16.569L6.62157 15.1779C6.55889 14.8852 6.27112 14.6987 5.97875 14.7615L4.75063 15.0252C4.52266 14.7906 4.31056 14.5406 4.11565 14.2767H10.0913C10.159 14.2767 10.2041 14.2645 10.2041 14.203V12.0892C10.2041 12.0276 10.159 12.0154 10.0913 12.0154H8.34365V10.6755H10.2339C10.4064 10.6755 11.1565 10.7248 11.3963 11.6835C11.4714 11.9783 11.6363 12.9374 11.749 13.2445C11.8614 13.5888 12.3188 14.2767 12.8063 14.2767H15.784C15.8179 14.2767 15.854 14.2729 15.892 14.266C15.6854 14.5467 15.4588 14.8124 15.2148 15.0606L13.9584 14.7906ZM5.69346 16.6911C5.37281 16.7603 5.05714 16.5558 4.98815 16.2346C4.91955 15.9128 5.12344 15.597 5.44409 15.5278C5.76473 15.4592 6.0806 15.6636 6.14939 15.9849C6.21799 16.3059 6.01391 16.6223 5.69346 16.6911ZM3.42658 7.49885C3.55958 7.79905 3.42429 8.15084 3.12447 8.28365C2.82466 8.41684 2.47382 8.28136 2.34082 7.98097C2.20783 7.68058 2.34312 7.32936 2.64293 7.19617C2.94294 7.06317 3.29359 7.19846 3.42658 7.49885ZM2.72988 9.15042L4.00921 8.58194C4.28247 8.4606 4.40591 8.14033 4.28457 7.86651L4.02106 7.27069H5.05733V11.9416H2.96664C2.78529 11.3042 2.68803 10.6314 2.68803 9.93599C2.68803 9.67057 2.70236 9.4082 2.72988 9.15042ZM8.34403 8.69678V7.32H10.8117C10.9392 7.32 11.7118 7.46732 11.7118 8.04498C11.7118 8.52461 11.1192 8.69659 10.6319 8.69659H8.34403V8.69678ZM17.3122 9.93599C17.3122 10.1187 17.3055 10.2994 17.2921 10.4789H16.5419C16.4668 10.4789 16.4366 10.5282 16.4366 10.6017V10.9463C16.4366 11.7572 15.9793 11.9336 15.5786 11.9785C15.197 12.0215 14.7739 11.8188 14.7218 11.5853C14.4967 10.3191 14.1216 10.0487 13.5292 9.58152C14.2643 9.11469 15.0292 8.42601 15.0292 7.5042C15.0292 6.50883 14.3469 5.88187 13.8818 5.57441C13.2292 5.14427 12.5067 5.05809 12.3118 5.05809H4.55305C5.60517 3.88386 7.03107 3.05205 8.64385 2.74937L9.5584 3.70882C9.76515 3.92532 10.1076 3.93335 10.3239 3.7264L11.3472 2.74765C13.4914 3.14683 15.3067 4.48158 16.3529 6.31277L15.6524 7.89498C15.5314 8.16881 15.6549 8.48907 15.9279 8.61041L17.2766 9.20947C17.2999 9.4489 17.3122 9.69082 17.3122 9.93599ZM9.55878 1.93323C9.79573 1.70622 10.1716 1.7152 10.3984 1.95253C10.6249 2.19044 10.6163 2.56669 10.3787 2.79351C10.1418 3.02052 9.76592 3.01173 9.5391 2.77402C9.31285 2.5365 9.32145 2.16025 9.55878 1.93323ZM16.5105 7.52771C16.6434 7.22751 16.9942 7.09203 17.294 7.22522C17.5938 7.35821 17.7291 7.70981 17.5961 8.01001C17.4633 8.3104 17.1125 8.44588 16.8125 8.3127C16.513 8.1797 16.3777 7.82829 16.5105 7.52771Z" fill="black"/>
</g>
<defs>
<clipPath id="clip0_341_634">
<rect width="20" height="20" fill="white"/>
</clipPath>
</defs>
</svg>

<svg xmlns="http://www.w3.org/2000/svg" width="20" height="20" fill="none" viewBox="0 0 20 20">
    <path fill="#000" d="m19.863 9.755-.84-.52L19 8.99l.721-.673a.288.288 0 0 0-.095-.482l-.923-.345q-.035-.12-.072-.238l.575-.799A.29.29 0 0 0 19.018 6l-.972-.158-.117-.219.409-.897a.288.288 0 0 0-.273-.409l-.988.035-.155-.19.226-.96a.29.29 0 0 0-.347-.349l-.962.227-.19-.156.036-.987a.288.288 0 0 0-.41-.273l-.896.409-.218-.117L14 .982a.29.29 0 0 0-.453-.188l-.8.575-.237-.072-.345-.922a.288.288 0 0 0-.482-.097l-.673.723-.245-.024-.52-.84a.29.29 0 0 0-.491 0l-.52.84L8.99 1 8.317.278a.29.29 0 0 0-.482.097l-.345.922-.237.072-.8-.575a.288.288 0 0 0-.454.188l-.159.973-.218.117-.897-.41a.288.288 0 0 0-.409.274l.035.987-.19.156-.961-.227a.29.29 0 0 0-.348.348l.226.962-.155.189-.987-.035a.29.29 0 0 0-.273.409l.409.897q-.06.108-.118.219l-.972.158a.29.29 0 0 0-.188.454l.575.8q-.038.118-.072.237l-.923.345a.29.29 0 0 0-.095.482L1 8.99l-.024.245-.84.52a.29.29 0 0 0 0 .491l.84.52q.01.123.024.245l-.721.673a.29.29 0 0 0 .095.482l.923.345q.034.12.072.238l-.575.799a.29.29 0 0 0 .188.454l.972.158q.057.11.118.219l-.41.897a.29.29 0 0 0 .274.409l.986-.035.156.19-.226.961a.288.288 0 0 0 .348.347l.961-.226q.094.079.19.155l-.035.988a.29.29 0 0 0 .409.272l.897-.408q.108.06.218.117l.159.972a.288.288 0 0 0 .454.189l.8-.576q.117.038.237.072l.345.922a.288.288 0 0 0 .482.096L8.99 19q.123.014.245.024l.52.84a.29.29 0 0 0 .491 0l.52-.84q.123-.01.245-.024l.673.721a.288.288 0 0 0 .481-.096l.345-.922q.12-.035.238-.072l.8.576a.29.29 0 0 0 .454-.189l.158-.972.219-.117.897.409a.288.288 0 0 0 .408-.273l-.034-.988q.096-.075.19-.155l.96.226a.287.287 0 0 0 .348-.347l-.226-.962q.078-.093.155-.19l.987.036a.288.288 0 0 0 .273-.41l-.408-.896q.06-.108.117-.219l.972-.158a.29.29 0 0 0 .188-.454l-.575-.8q.037-.118.072-.237l.922-.345a.288.288 0 0 0 .096-.482L19 11.01q.013-.123.023-.245l.84-.52a.288.288 0 0 0 0-.491m-5.62 6.965a.595.595 0 0 1 .25-1.163.595.595 0 0 1-.25 1.163m-.285-1.93a.54.54 0 0 0-.643.417l-.298 1.391c-.92.418-1.941.65-3.017.65-1.1 0-2.144-.244-3.08-.679l-.298-1.391a.54.54 0 0 0-.643-.417l-1.228.264a7 7 0 0 1-.635-.748h5.975c.068 0 .113-.012.113-.074v-2.114c0-.061-.045-.074-.113-.074H8.344v-1.34h1.89c.172 0 .922.05 1.162 1.008.075.295.24 1.254.353 1.562.112.344.57 1.032 1.057 1.032h2.978q.051 0 .108-.011-.31.42-.677.795zM5.693 16.69a.594.594 0 1 1-.249-1.16.594.594 0 0 1 .25 1.16M3.427 7.5a.595.595 0 1 1-1.088.482.595.595 0 0 1 1.088-.482M2.73 9.15l1.28-.568a.54.54 0 0 0 .275-.715L4.02 7.27h1.036v4.67h-2.09a7.3 7.3 0 0 1-.237-2.79m5.614-.453V7.32h2.468c.127 0 .9.147.9.725 0 .48-.593.652-1.08.652zm8.968 1.239q0 .274-.02.543h-.75c-.075 0-.105.05-.105.123v.344c0 .811-.458.988-.858 1.033-.382.043-.805-.16-.857-.394-.225-1.266-.6-1.536-1.193-2.003.735-.467 1.5-1.156 1.5-2.078 0-.995-.682-1.622-1.147-1.93-.653-.43-1.375-.516-1.57-.516H4.553a7.3 7.3 0 0 1 4.09-2.309l.915.96a.54.54 0 0 0 .766.017l1.023-.978a7.32 7.32 0 0 1 5.006 3.565l-.7 1.582a.543.543 0 0 0 .275.715l1.349.6q.035.358.035.726M9.56 1.933a.593.593 0 1 1 .82.86.595.595 0 0 1-.82-.86m6.952 5.595a.593.593 0 1 1 1.085.482.593.593 0 1 1-1.085-.482"/>
</svg>
